modules/hawcons-stroke/icons/icon-30-three-fingers-swipe-up.svg

<?xml version="1.0" encoding="UTF-8" standalone="no"?>
<svg width="32px" height="32px" viewBox="0 0 32 32" version="1.1" xmlns="http://www.w3.org/2000/svg" xmlns:xlink="http://www.w3.org/1999/xlink" xmlns:sketch="http://www.bohemiancoding.com/sketch/ns">
    <!-- Generator: Sketch 3.0.3 (7891) - http://www.bohemiancoding.com/sketch -->
    <title>icon 30 three fingers swipe up</title>
    <desc>Created with Sketch.</desc>
    <defs></defs>
    <g id="Page-1" stroke="none" stroke-width="1" fill="none" fill-rule="evenodd" sketch:type="MSPage">
        <g id="icon-30-three-fingers-swipe-up" sketch:type="MSArtboardGroup" fill="#929292">
            <path d="M19.1244203,28.9875042 C15.6642626,28.8125013 13.5548335,26.8149813 11.8717958,23.9830936 C7.95978233,17.4007216 5.15828327,14.3887562 6.24545305,13.2957153 C7.35605012,12.1791206 10.0660207,14.5979243 12.1244203,16.7983451 L12.1244203,5.50524116 C12.1244203,4.66712976 12.7959932,4 13.6244203,4 C14.4586231,4 15.1244203,4.67391942 15.1244203,5.50524116 L15.1244203,16 L16.1244203,16 L16.1244203,4.49089813 C16.1244203,3.67622006 16.7959932,3 17.6244203,3 C18.4586231,3 19.1244203,3.66749783 19.1244203,4.49089813 L19.1244203,15 L20.1244203,15 L20.1244203,5.5032506 C20.1244203,4.66543579 20.7959932,4 21.6244203,4 C22.4586231,4 23.1244203,4.67302822 23.1244203,5.5032506 L23.1244203,16 L24.1244203,16 L24.1244203,15.5016756 C24.1244203,14.6711894 24.7959932,14 25.6244203,14 C26.4586231,14 27.1244203,14.6723231 27.1244203,15.5016756 L27.1244203,17.7491622 L27.1244203,21.5 C27.1244203,25.4741216 24.0334364,28.7263047 20.1244203,28.9835977 L20.1244203,19.950001 L23.3744203,23.200001 L24.1244203,22.450001 L19.6244203,17.950001 L15.1244203,22.450001 L15.8744203,23.200001 L19.1244203,19.950001 L19.1244203,28.9875042 L19.1244203,28.9875042 Z M28.1244203,21.5 C28.1244203,26.1944206 24.3188409,30 19.6244203,30.0000003 C16.5115051,30.0000003 13.2262274,28.5474856 10.9652407,24.4282229 C7.70175208,18.4825159 3.52827319,14.5832077 5.51553361,12.5959473 C6.9371827,11.1742982 9.16926196,12.5381668 11.1244203,14.3667868 L11.1244203,14.3667868 L11.1244203,5.50282288 C11.1244203,4.12598062 12.2437085,3 13.6244203,3 C14.2628592,3 14.8421142,3.23628158 15.2819171,3.62568646 C15.6366695,2.67469496 16.5516343,2 17.6244203,2 C18.7047395,2 19.6155981,2.67671416 19.9680923,3.62713444 C20.4091333,3.23662723 20.9891015,3 21.6244203,3 C23.0147583,3 24.1244203,4.12083549 24.1244203,5.50345613 L24.1244203,13.5145117 C24.5422506,13.2003871 25.0616174,13.014191 25.6244203,13.014191 C27.0147583,13.014191 28.1244203,14.1335355 28.1244203,15.5143168 L28.1244203,21.5 L28.1244203,21.5 Z" id="three-fingers-swipe-up" sketch:type="MSShapeGroup"></path>
        </g>
    </g>
</svg>

<svg width="32" height="32" viewBox="0 0 32 32" xmlns="http://www.w3.org/2000/svg"><path d="M19.124 28.988c-3.46-.175-5.57-2.173-7.252-5.005-3.912-6.582-6.714-9.594-5.627-10.687 1.111-1.117 3.821 1.302 5.88 3.502V5.505a1.499 1.499 0 1 1 3 0V16h1V4.49a1.501 1.501 0 0 1 3 0V15h1V5.503c0-.838.671-1.503 1.5-1.503.834 0 1.5.673 1.5 1.503V16h1v-.498a1.5 1.5 0 1 1 3 0V21.5a7.5 7.5 0 0 1-7 7.484V19.95l3.25 3.25.75-.75-4.5-4.5-4.5 4.5.75.75 3.25-3.25v9.038zm9-7.488a8.5 8.5 0 0 1-8.5 8.5c-3.112 0-6.398-1.453-8.659-5.572-3.263-5.945-7.437-9.845-5.45-11.832 1.422-1.422 3.654-.058 5.61 1.77V5.504a2.505 2.505 0 0 1 4.157-1.877A2.499 2.499 0 0 1 17.624 2c1.08 0 1.992.677 2.344 1.627A2.49 2.49 0 0 1 21.624 3c1.39 0 2.5 1.12 2.5 2.503v8.012c.418-.315.938-.5 1.5-.5 1.39 0 2.5 1.119 2.5 2.5V21.5z" fill="#929292" fill-rule="evenodd"/></svg>
